packages/katcn/src/icons/svg/dataStorage.svg

<svg width="24" height="25" viewBox="0 0 24 25" fill="none" xmlns="http://www.w3.org/2000/svg">
<path d="M21.9 15.912C21.9 15.812 22 15.812 21.9 15.912V15.712L19.9 5.11201C19.6 3.51201 18.2 2.31201 16.5 2.31201H7.5C5.8 2.31201 4.4 3.51201 4.1 5.11201L2.9 11.312C2.8 11.812 3.2 12.412 3.7 12.512C4.2 12.612 4.8 12.212 4.9 11.712L6.1 5.51201C6.2 4.81201 6.8 4.31201 7.5 4.31201H16.5C17.2 4.31201 17.8 4.81201 17.9 5.51201L19.3 13.112C19 13.012 18.7 13.012 18.5 13.012H5.5C3.6 13.012 2 14.512 2 16.512V19.012C2 20.812 3.5 22.312 5.5 22.312H18.6C20.5 22.312 22.1 20.812 22.1 18.812V16.312C22 16.212 22 16.012 21.9 15.912ZM20 18.812C20 19.612 19.3 20.312 18.5 20.312H5.5C4.7 20.312 4 19.612 4 18.812V16.312C4 15.512 4.7 14.812 5.5 14.812H18.6C19.3 14.812 19.9 15.312 20 16.012C20 16.112 20 16.212 20 16.312V18.812Z" fill="black"/>
<path d="M7.89999 17.012H6.29999C5.69999 17.012 5.29999 17.412 5.29999 18.012C5.29999 18.612 5.69999 19.012 6.29999 19.012H7.89999C8.49999 19.012 8.89999 18.612 8.89999 18.012C8.89999 17.412 8.49999 17.012 7.89999 17.012Z" fill="black"/>
</svg>

<svg xmlns="http://www.w3.org/2000/svg" fill="none" viewBox="0 0 24 25"><path fill="#000" d="M21.9 15.912c0-.1.1-.1 0 0v-.2l-2-10.6c-.3-1.6-1.7-2.8-3.4-2.8h-9c-1.7 0-3.1 1.2-3.4 2.8l-1.2 6.2c-.1.5.3 1.1.8 1.2s1.1-.3 1.2-.8l1.2-6.2c.1-.7.7-1.2 1.4-1.2h9c.7 0 1.3.5 1.4 1.2l1.4 7.6c-.3-.1-.6-.1-.8-.1h-13c-1.9 0-3.5 1.5-3.5 3.5v2.5c0 1.8 1.5 3.3 3.5 3.3h13.1c1.9 0 3.5-1.5 3.5-3.5v-2.5c-.1-.1-.1-.3-.2-.4m-1.9 2.9c0 .8-.7 1.5-1.5 1.5h-13c-.8 0-1.5-.7-1.5-1.5v-2.5c0-.8.7-1.5 1.5-1.5h13.1c.7 0 1.3.5 1.4 1.2z"/><path fill="#000" d="M7.9 17.012H6.3c-.6 0-1 .4-1 1s.4 1 1 1h1.6c.6 0 1-.4 1-1s-.4-1-1-1"/></svg>
